X:1
T:Title
%%score ( 1 2 ) ( 3 4 )
L:1/8
Q:1/4=120
M:6/4
K:Eb
V:1 treble nm="Grand Piano, Soprano"
V:2 treble 
V:3 bass nm="Choir Pad, They Crucified Him"
V:4 bass 
V:1
 E2 [EG]3 [DF] [EG]2 [FA]4 | [FA]2 [FA]3 [EG] [FA]2 [GB]4 | [GB]2 [Ac]3 A [Ac]2 [Ac]3 [Ad] | %3
w: By~John~Marchant~Whyte * * * *|||
 [Ae]2 [GB]4- [GB]4- [GB]3/2 z/ | [EG]2 [GB]3 [FA] [FA]2 [FA]4 | [DF]2 [FA]3 [EG] [EG]2 [EG]4 | %6
w: |||
 [EG]2 [EG]2 [DF]2 [DF]2 [DA]2 [B,A]2 | [B,D]2 [B,E]4- [B,E]3/2 z/ [Ge]4 | %8
w: ||
 [Bd]2 [Ac]3 [Ac] [Ac]2 [Ac]4 | [Ac]2 [Ac]3 [GB] [GB]2 [GB]4 | [GB]2 [AB]4 [AB]2 [AB]4 | %11
w: |||
 [DA]2 [EG]4- [EG]4- [EG]3/2 z/ | [DF][DF] [FA]4 [DF]2 [FA]4 | %13
w: ||
 [EG][FA] [GB]2 [GB]2- [GB][EG] [GB]4 | [GB]2 [GB]3 [EG] [GB]2 [GB] [FA]3 | %15
w: ||
 [B,F]2 E4- [CE-]2 [B,E]4- | [B,E]6 z6 |] %17
w: ||
V:2
 x12 | x12 | x12 | x12 | x12 | x12 | x12 | x12 | x12 | x12 | x12 | x12 | x12 | x12 | x12 | %15
 z2 B,4 z6 | x12 |] %17
V:3
 [E,G,]2 [E,B,]3 [E,B,] [E,B,]2 [B,,B,]4 | [B,,B,]2 [B,,B,]3 [B,,B,] [B,,B,]2 [E,B,]4 | %2
 [E,E]2 [A,E]3 [A,C] [A,E]2 [E,E]3 [E,D] | [E,C]2 [E,E]4- [E,E]4- [E,E]3/2 z/ | %4
 [E,B,]2 [B,,B,]3 [B,,B,] [B,,B,]2 [B,,B,]4 | [B,,B,]2 [E,B,]3 [E,B,] [E,B,]2 [E,B,]4 | %6
 [E,B,]2 [B,,B,]2 [B,,B,]2 [B,,B,]2 [B,,F,]2 [B,,F,]2 | z6 z2 B,4 | z12 | %9
 [A,E]2 [E,E]3 [E,E] [E,E]2 [E,E]4 | [E,E]2 [B,D]4 [B,D]2 [B,D]4 | %11
 [B,,B,]2 [E,B,]4- [E,B,]4- [E,B,]3/2 z/ | [B,,B,][B,,B,] [B,,B,]4 [B,,B,]2 [B,,B,]4 | %13
 [B,,B,]2 [E,E]2 [E,E]2- [E,E][E,E] [E,E]4 | [E,E]2 [E,E]3 [E,B,] [E,B,]2 [B,,B,] [B,,B,]3 | %15
 z2 G,4 z6 | z12 |] %17
V:4
 x12 | x12 | x12 | x12 | x12 | x12 | x12 | [B,,A,]2 [E,G,]4- [E,G,]3/2 z/ E,4- | %8
 [E,E]2 [A,E]3 [A,E] [A,E]2 [A,E]4 | x12 | x12 | x12 | x12 | x12 | x12 | %15
 [B,,A,]2 E,4- [E,-A,]2 [E,G,]4- | [E,G,]6 z6 |] %17

